src/assets/img/bio/small-circle--orange.svg

<svg fill="none" height="35" viewBox="0 0 80 35" width="80" xmlns="http://www.w3.org/2000/svg"><path clip-rule="evenodd" d="m30.6814 4.07903c-6.1935.02448-11.804 1.64016-17.0105 3.94421-5.73386 2.53806-8.72479 6.52446-9.31571 11.52616-.35715 3.0179 1.05196 5.4865 3.95329 7.5428 1.85582 1.3141 4.04552 2.1826 6.40392 2.7917 2.9442.7608 5.9728 1.3542 9.1027 1.3846 7.2429.0714 21.6064.2993 32.0592-1.3846 10.4529-1.684 12.8045-1.3835 16.0092-3.3001 4.9075-2.9351 4.9545-4.6065 4.9545-8.9791 0-1.7189-1.1013-3.0538-3.221-4.9214-2.1198-1.8675-8.3226-5.23667-8.8902-5.42174-8.6208-2.8152-19.4569-4.04912-30.3921-3.18351-.3416 0-1.9974-.0049-3.6533.00098zm34.9938 0c3.491 1.1721 7.7859 4.25991 10.2339 6.41417 2.1572 1.8996 6.7609 9.0562 2.0319 15.459-4.7289 6.4027-7.6089 5.3163-20.6469 7.5117-8.1717 1.3761-29.514 1.9397-38.0271.7285-2.8714-.4084-5.6507-1.0076-8.3247-1.8801-2.90655-.9479-5.3845-2.3442-7.38842-4.1978-2.30651-2.1337-3.5857446-4.567-3.55327672-7.3411.07792282-6.8015 3.82341672-12.18026 11.61439672-15.60061 5.7559-2.52829 12.0118-4.258535 18.8625-4.246785 1.452.001959 2.9052 0 3.2923 0 11.552-.9576569 22.517.001959 31.9054 3.153025z" fill="#fb923c" fill-rule="evenodd"/></svg>

<svg width="80" height="35" viewBox="0 0 80 35" fill="none" xmlns="http://www.w3.org/2000/svg">
<path fill-rule="evenodd" clip-rule="evenodd" d="M30.6814 4.07903C24.4879 4.10351 18.8774 5.71919 13.6709 8.02324C7.93704 10.5613 4.94611 14.5477 4.35519 19.5494C3.99804 22.5673 5.40715 25.0359 8.30848 27.0922C10.1643 28.4063 12.354 29.2748 14.7124 29.8839C17.6566 30.6447 20.6852 31.2381 23.8151 31.2685C31.058 31.3399 45.4215 31.5678 55.8743 29.8839C66.3272 28.1999 68.6788 28.5004 71.8835 26.5838C76.791 23.6487 76.838 21.9773 76.838 17.6047C76.838 15.8858 75.7367 14.5509 73.617 12.6833C71.4972 10.8158 65.2944 7.44663 64.7268 7.26156C56.106 4.44636 45.2699 3.21244 34.3347 4.07805C33.9931 4.07805 32.3373 4.07315 30.6814 4.07903ZM65.6752 4.07903C69.1662 5.25113 73.4611 8.33894 75.9091 10.4932C78.0663 12.3928 82.67 19.5494 77.941 25.9522C73.2121 32.3549 70.3321 31.2685 57.2941 33.4639C49.1224 34.84 27.7801 35.4036 19.267 34.1924C16.3956 33.784 13.6163 33.1848 10.9423 32.3123C8.03575 31.3644 5.5578 29.9681 3.55388 28.1145C1.24737 25.9808 -0.0318646 23.5475 0.000603285 20.7734C0.0785261 13.9719 3.82402 8.59314 11.615 5.17279C17.3709 2.6445 23.6268 0.914255 30.4775 0.926005C31.9295 0.927964 33.3827 0.926005 33.7698 0.926005C45.3218 -0.0316519 56.2868 0.927964 65.6752 4.07903Z" fill="#FB923C"/>
</svg>
